X:127
T:Cock of the North, The
R:Strathspey
B:The Athole Collection
M:C
L:1/8
K:B_
d|B<B, B,/B,/B, F>B, D<d|B>B, D/B/d c>AB>G|F>B, B,/B,/B, F>B, D<B|
C<CD<F G2G:|
d|B>f d<f F<B D>d|B<f d>f g>B f<d|B>f d<f F<B D>B|C<C D>F G2 G>d|
B>f d<f F<B D>d|B<f d>f g>B f<b|f<d d>B c>A B<d|C<C D>F G2G||

